X: 2
T: The Paper Bird
R: reel
M: 4/4
L: 1/8
K: Bmin
|: Bcde f2 ef | Bcde afgf | Bcde fegf |1 efcd ~B3 F :|2 efcd B3 d |!|: dBde f2 e/2f/2a | dBfg f2 ec | dBde fe ab |1 fede ~f3 d :|2 fede ~f3a|: b2 ab fefa | fabf edef |1 b2 ab fede | fgfe ~f3 a :|2 b2 ab fede | fg


Tune 2510	Setting 2510

